X: 1
T: Good-bye Girls, I'm Goin' to Boston
S: Sandy Lafleur www.wanderingdulcimer.com 2018-09-11
R: reel
Z: 2018 John Chambers <jc:trillian.mit.edu>
M: C|
L: 1/16
K: D
|:\
"D"D2F2 A2A2 | "G"B3B "A7"G2E2 | E2F2 G2G2 | "D"A3A F2D2 |
"D"D2F2 A2A2 | "G"B3B "A7"G2E2 | A2A2 G2E2 | "D"D4  D4 :|
|:\
"D"ddd2 ddee | d4 A4 | "C"=ccc2     ccdd |   =c4 "D"A4 |
"D"ddd2 ddee | d4 A4 | "C"=c2A2 "A7"G2E2 | "D"D4    D4 :|

